app/assets/v2/images/mission/value/stress_reducing.svg

<svg xmlns="http://www.w3.org/2000/svg" viewBox="0 0 54.49 50.09"><defs><style>.cls-1{fill:#00ed92}.cls-2{fill:#180041}</style></defs><g id="Layer_2" data-name="Layer 2"><g id="Layer_2-2" data-name="Layer 2"><path class="cls-1" d="M9.6 31.65a5.1 5.1 0 1 0 4.28 5.8 5.11 5.11 0 0 0-4.28-5.8zM30.16 5.93a5.1 5.1 0 1 0 4.28 5.8 5.1 5.1 0 0 0-4.28-5.8zM42.15 36.56a5.1 5.1 0 1 0 4.28 5.8 5.1 5.1 0 0 0-4.28-5.8z"/><path class="cls-2" d="M10.78 34.21a5.1 5.1 0 1 0 5.1 5.09 5.1 5.1 0 0 0-5.1-5.09zm0 7.64a2.55 2.55 0 1 1 2.54-2.55 2.55 2.55 0 0 1-2.54 2.55zM43.71 34.21a5.1 5.1 0 1 0 5.1 5.09 5.1 5.1 0 0 0-5.1-5.09zm0 7.64a2.55 2.55 0 1 1 2.54-2.55 2.55 2.55 0 0 1-2.54 2.55zM27.24 5.69a5.1 5.1 0 1 0 5.1 5.1 5.09 5.09 0 0 0-5.1-5.1zm0 7.64a2.55 2.55 0 1 1 2.55-2.54 2.54 2.54 0 0 1-2.55 2.54z"/><path class="cls-2" d="M53.05 44.7a10.79 10.79 0 0 0-9.34-16.18 8.23 8.23 0 0 1-7.13-12.34 10.79 10.79 0 1 0-18.68 0 8.22 8.22 0 0 1-7.12 12.34 10.79 10.79 0 1 0 9.34 16.18 8.22 8.22 0 0 1 14.25 0 10.79 10.79 0 0 0 18.68 0zm-9.34 2.83a8.26 8.26 0 0 1-7.13-4.11 10.78 10.78 0 0 0-18.67 0 8.23 8.23 0 0 1-14.26-8.23 8.26 8.26 0 0 1 7.13-4.11 10.79 10.79 0 0 0 9.34-16.18 8.23 8.23 0 1 1 14.25 0 10.79 10.79 0 0 0 9.34 16.18 8.23 8.23 0 1 1 0 16.45z"/><path class="cls-2" d="M27.24 23.94a5.86 5.86 0 1 0 5.87 5.86 5.86 5.86 0 0 0-5.87-5.86zm0 9.16a3.31 3.31 0 1 1 3.31-3.3 3.3 3.3 0 0 1-3.31 3.3z"/></g></g></svg>

<svg xmlns="http://www.w3.org/2000/svg" viewBox="0 0 54.49 50.09"><defs><style>.cls-1{fill:#00ed92;}.cls-2{fill:#180041;}</style></defs><title>stress_reducing</title><g id="Layer_2" data-name="Layer 2"><g id="Layer_2-2" data-name="Layer 2"><path class="cls-1" d="M9.6,31.65a5.1,5.1,0,1,0,4.28,5.8A5.11,5.11,0,0,0,9.6,31.65Z"/><path class="cls-1" d="M30.16,5.93a5.1,5.1,0,1,0,4.28,5.8A5.1,5.1,0,0,0,30.16,5.93Z"/><path class="cls-1" d="M42.15,36.56a5.1,5.1,0,1,0,4.28,5.8A5.1,5.1,0,0,0,42.15,36.56Z"/><path class="cls-2" d="M10.78,34.21a5.1,5.1,0,1,0,5.1,5.09A5.1,5.1,0,0,0,10.78,34.21Zm0,7.64a2.55,2.55,0,1,1,2.54-2.55A2.55,2.55,0,0,1,10.78,41.85Z"/><path class="cls-2" d="M43.71,34.21a5.1,5.1,0,1,0,5.1,5.09A5.1,5.1,0,0,0,43.71,34.21Zm0,7.64a2.55,2.55,0,1,1,2.54-2.55A2.55,2.55,0,0,1,43.71,41.85Z"/><path class="cls-2" d="M27.24,5.69a5.1,5.1,0,1,0,5.1,5.1A5.09,5.09,0,0,0,27.24,5.69Zm0,7.64a2.55,2.55,0,1,1,2.55-2.54A2.54,2.54,0,0,1,27.24,13.33Z"/><path class="cls-2" d="M53.05,44.7a10.79,10.79,0,0,0-9.34-16.18,8.23,8.23,0,0,1-7.13-12.34,10.79,10.79,0,1,0-18.68,0,8.22,8.22,0,0,1-7.12,12.34A10.79,10.79,0,1,0,20.12,44.7a8.22,8.22,0,0,1,14.25,0,10.79,10.79,0,0,0,18.68,0Zm-9.34,2.83a8.26,8.26,0,0,1-7.13-4.11,10.78,10.78,0,0,0-18.67,0A8.23,8.23,0,0,1,3.65,35.19h0a8.26,8.26,0,0,1,7.13-4.11A10.79,10.79,0,0,0,20.12,14.9a8.23,8.23,0,1,1,14.25,0,10.79,10.79,0,0,0,9.34,16.18,8.23,8.23,0,1,1,0,16.45Z"/><path class="cls-2" d="M27.24,23.94a5.86,5.86,0,1,0,5.87,5.86A5.86,5.86,0,0,0,27.24,23.94Zm0,9.16a3.31,3.31,0,1,1,3.31-3.3A3.3,3.3,0,0,1,27.24,33.1Z"/></g></g></svg>
